X:1
T:Title
%%score { ( 1 4 ) | ( 2 3 ) }
L:1/8
M:6/8
K:D
V:1 treble nm="Grand Piano"
V:4 treble 
V:2 bass 
V:3 bass 
V:1
 z3 z2[Q:1/4=90] [FA] | [FA]2 [FA] [FA]^G[DFA] | [DGB]2 [DGB] [DGB]2 [EAc]/[EAc]/ | %3
 [DAd]2 [DA] [DFA]2 [A,DF] |[M:5/8] [A,CE]-[A,CE]- [A,CE]3 |[M:1/8] [A,CE] | %6
[M:3/4] [A,DF]2 [A,EG] [DFA]2 [DF^A] | [DGc]2 [DGB] [^Ge]2 [Gd]/[DGB]/ | [DFd]2 [DFA] [CEA]2 [Ge] | %9
[M:5/8] [Fd]-[Fd]- [Fd]3 |[M:1/8] F/F/ |[M:3/4] G2 d d2 G | F6 | D2 A [FA]2 [DF] | %14
[M:5/8] [CE]-[CE]- [CE]3 |[M:1/8] [A,CE] |[M:3/4] [A,DF]2 [A,EG] [DFA]2 [DF^A] | %17
 [DGc]2 [DGB] [^Ge]2 [Gd]/[DGB]/ | [DFd]2 [DFA] [CEA]2 [Ge] | %19
[M:13/8] [Fd]-[Fd]- [Fd]3 z z z z z z z2 |] %20
V:2
 z3 z2 [D,D] | [D,D]2 [D,D] z =FD, | G,2 G, G,2 G,/G,/ | F,2 F, D,2 D, |[M:5/8] A,,-A,,- A,,3 | %5
[M:1/8] A,, |[M:3/4] D,2 D, D,2 D, | G,2 G, [E,D]2 [E,B,]/E,/ | A,2 A, A,,2 [A,,A,] | %9
[M:5/8] [D,A,]-[D,A,]- [D,A,]3 |[M:1/8] [D,A,D]/[D,A,D]/ | %11
[M:3/4][K:treble] [G,B,D]2 [G,B,G] [G,B,G]2[K:bass] [G,B,D] | D2- [D,D-] [D,D]2 [D,A,D]/[D,A,C]/ | %13
 [F,A,]2 [F,A,D] [D,D]2 [D,A,] |[M:5/8] [A,,A,]2 A,, A,,2 |[M:1/8] A,, |[M:3/4] D,2 D, D,2 D, | %17
 G,2 G, [E,D]2 [E,B,]/E,/ | A,2 A, A,,2 [A,,A,] |[M:13/8] [D,A,]-[D,A,]- [D,A,]3 z z z z z z z2 |] %20
V:3
 x6 | z3 .[D,D]3 | x6 | x6 |[M:5/8] x5 |[M:1/8] x |[M:3/4] x6 | x6 | x6 |[M:5/8] x5 |[M:1/8] x | %11
[M:3/4][K:treble] x5[K:bass] x | [D,A,]2 z2 z2 | x6 |[M:5/8] x5 |[M:1/8] x |[M:3/4] x6 | x6 | x6 | %19
[M:13/8] x13 |] %20
V:4
 x6 | x6 | x6 | x6 |[M:5/8] x5 |[M:1/8] x |[M:3/4] x6 | x6 | x6 |[M:5/8] x5 |[M:1/8] x | %11
[M:3/4] x6 | z2 A, A,2 F/E/ | x6 |[M:5/8] z2 A, A,2 |[M:1/8] x |[M:3/4] x6 | x6 | x6 | %19
[M:13/8] x13 |] %20

